assets/img/messenger-logo.svg

<svg xmlns="http://www.w3.org/2000/svg" width="24" height="24" viewBox="0 0 24 24" fill="none">
  <g clip-path="url(#clip0_1477_9623)">
    <path d="M12 0C5.24006 0 0 4.95169 0 11.64C0 15.1385 1.43372 18.1614 3.76875 20.2495C3.96469 20.4249 4.083 20.6707 4.09106 20.9337L4.15641 23.0684C4.17731 23.7492 4.88053 24.1923 5.50359 23.9172L7.88541 22.8656C8.08728 22.7766 8.31368 22.76 8.52637 22.8187C9.62091 23.1196 10.7858 23.2799 12 23.2799C18.7599 23.2799 24 18.3282 24 11.6399C24 4.95159 18.7599 0 12 0Z" fill="url(#paint0_linear_1477_9623)"/>
    <path d="M4.79384 15.0441L8.31884 9.45165C8.87947 8.56196 10.0802 8.34043 10.9215 8.97137L13.7251 11.0742C13.8503 11.1681 14.0027 11.2186 14.1592 11.2182C14.3157 11.2177 14.4678 11.1663 14.5925 11.0716L18.3789 8.19802C18.8842 7.81449 19.544 8.41927 19.2057 8.95599L15.6807 14.5486C15.12 15.4382 13.9192 15.6597 13.078 15.0287L10.2743 12.9259C10.1491 12.8321 9.99673 12.7815 9.84026 12.782C9.68379 12.7825 9.53173 12.8339 9.40709 12.9285L5.62053 15.8021C5.11522 16.1855 4.4555 15.5808 4.79384 15.0441Z" fill="white"/>
  </g>
  <defs>
    <linearGradient id="paint0_linear_1477_9623" x1="3076.97" y1="2387.16" x2="-2153.11" y2="2387.16" gradientUnits="userSpaceOnUse">
      <stop offset="0.229" stop-color="#0099FF"/>
      <stop offset="0.444" stop-color="#A033FF"/>
      <stop offset="0.659" stop-color="#FF5280"/>
      <stop offset="0.819" stop-color="#FF7061"/>
    </linearGradient>
    <clipPath id="clip0_1477_9623">
      <rect width="24" height="24" fill="white"/>
    </clipPath>
  </defs>
</svg>

<svg xmlns="http://www.w3.org/2000/svg" width="24" height="24" fill="none"><g clip-path="url(#a)"><path fill="url(#b)" d="M12 0C5.24 0 0 4.952 0 11.64c0 3.499 1.434 6.521 3.769 8.61a.96.96 0 0 1 .322.684l.065 2.134a.96.96 0 0 0 1.348.85l2.381-1.052a.96.96 0 0 1 .641-.047c1.095.3 2.26.46 3.474.46 6.76 0 12-4.95 12-11.64C24 4.953 18.76 0 12 0"/><path fill="#fff" d="m4.794 15.044 3.525-5.592a1.8 1.8 0 0 1 2.602-.48l2.804 2.102a.72.72 0 0 0 .867-.002l3.787-2.874c.505-.384 1.165.221.827.758l-3.525 5.593a1.8 1.8 0 0 1-2.603.48l-2.804-2.103a.72.72 0 0 0-.867.002l-3.786 2.874c-.506.384-1.166-.221-.827-.758"/></g><defs><linearGradient id="b" x1="3076.97" x2="-2153.11" y1="2387.16" y2="2387.16" gradientUnits="userSpaceOnUse"><stop offset=".229" stop-color="#09F"/><stop offset=".444" stop-color="#A033FF"/><stop offset=".659" stop-color="#FF5280"/><stop offset=".819" stop-color="#FF7061"/></linearGradient><clipPath id="a"><path fill="#fff" d="M0 0h24v24H0z"/></clipPath></defs></svg>
